X:072
T: For the Lack of Gold
N: O'Farrell's Pocket Companion v.1 (Sky ed. p.49)
N: "Scotch"
M: C
L: 1/8
Q: 130 %"slow"
K: D
FE||D3F ABdB|B2 e>f e2 dB|d2a2 fabd|f2 a>b a3d|
g>abg f>gaf|gfed e2 de/f/|D3F A>BdA|B2 d>e d2 :|
de||fdeB dABF|E2 e>f e2 fa|bafb adbd|f2 a>b a2 d2|
g>abg fgaf|gfed e2 de/f/|D2 DF ABdB|B2 d>e d2 :|
